blockchains/ethereum/assets/0x8E870D67F660D95d5be530380D0eC0bd388289E1/logo.svg

<svg fill="none" height="250" viewBox="0 0 250 250" width="250" xmlns="http://www.w3.org/2000/svg" xmlns:xlink="http://www.w3.org/1999/xlink"><clipPath id="a"><path d="m0 0h250v250h-250z"/></clipPath><g clip-path="url(#a)"><path d="m56.8181 219.458c7.4142 8.974 16.4317 16.295 26.5294 21.537 10.0978 5.243 21.0745 8.303 32.2945 9.003 13.404-.756 26.05-6.841 35.427-17.046 18.497-16.832 37.916-32.484 58.156-46.875l11.363-4.971c4.679-2.131 12.701-7.102 20.054-16.335 8.021-11.364 9.358-23.438 9.358-27.699-.889-13.44-5.034-26.407-12.032-37.6423-18.263 34.5753-44.436 63.6993-76.099 84.6783-31.663 20.98-67.7936 33.138-105.0509 35.35z" fill="#0293d6"/><path d="m82.2192 17.7523c4.99-5.6002 11.0008-10.06253 17.6661-13.11509 6.6657-3.05256 13.8457-4.631498 21.1037-4.64063683 4.599-.32715117 9.213.32066483 13.574 1.90575683 4.36 1.58509 8.381 4.07579 11.827 7.3272 19.174 14.43267 42.013 22.35627 65.508 22.72727 6.016.7102 18.049 2.8409 26.07 13.4943 6.016 8.5227 6.684 17.7557 6.684 22.0171-.538 10.9744-2.797 21.7763-6.684 31.9602z" fill="#ebe638"/><path d="m56.8182 219.457c-6.0161-.711-14.0374-2.841-23.3957-7.103-9.3583-4.261-20.722-9.233-28.07491-22.727-4.679141-8.523-5.34759-17.045-5.34759-22.727.163197-15.068 3.59433-29.894 10.0267-43.324 6.3997-16.6 10.6714-34.0381 12.7006-51.8466l3.3422-14.2045c2.0054-7.1023 3.3423-14.2046 8.0214-21.3069l7.353-8.5227c12.1446-8.1127 26.5167-11.6174 40.7754-9.9432-19.0927 29.0192-31.3626 62.477-35.782 97.5709-4.4195 35.094-.8598 70.802 10.3809 104.134z" fill="#bad147"/><path d="m82.2192 17.7578c-.6685 0 36.0958 2.1307 58.8238 10.6534l18.716 8.5227c-7.353-.7102-54.144-2.8409-89.5719 34.8012-44.7861 48.2959-30.0802 114.3469-29.4118 117.8979-10.3787-13.874-15.6107-31.309-14.7058-49.006.8799-23.487 6.3224-46.5266 15.9853-67.6715 9.6629-21.1448 23.3375-39.9377 40.1644-55.1977z" fill="#78b650"/><path d="m171.791 193.18c12.647-24.425 18.249-52.264 16.109-80.049-2.139-27.7839-11.926-54.2851-28.141-76.2013 19.362 3.4395 37.172 13.3988 50.802 28.4091 8.022 7.1023 18.049 17.7557 27.407 34.0909-13.217 37.3023-36.174 69.8243-66.177 93.7503z" fill="#2f8260"/><path d="m193.182 68.1847c-10.695-19.1761-26.07-27.6989-32.754-31.25-5.348-1.4204-55.482-9.9432-93.5832 29.1193-30.7486 31.25-32.754 71.733-32.754 79.545.1415 26.767 8.6013 52.733 24.0642 73.864 19.871 4.065 40.2894 4.065 60.16 0 10.027-2.131 33.423-6.392 53.476-24.858 2.674-2.841 32.086-31.96 34.091-78.125 0-7.812 0-27.6987-12.7-48.2953zm-24.064 102.9833c-6.208 7.174-13.751 12.899-22.151 16.812-8.4 3.912-17.474 5.926-26.646 5.915-4.011 0-30.7489-.71-49.4655-24.148-2.6738-3.551-16.0428-20.596-15.3743-46.165 1.3369-34.0905 26.738-53.9768 32.0856-58.2382 4.6791-3.5511 16.0432-11.3636 32.7542-12.0739 4.01-.7102 18.048-1.4204 32.085 7.1023 30.749 17.7557 32.086 60.3698 32.086 63.2098 0 7.813 0 29.12-15.374 47.586z" fill="#085229"/></g></svg>

<svg width="250" height="250" viewBox="0 0 250 250" fill="none" xmlns="http://www.w3.org/2000/svg">
<g clip-path="url(#clip0_48_12468)">
<path d="M56.8181 219.458C64.2323 228.432 73.2498 235.753 83.3475 240.995C93.4453 246.238 104.422 249.298 115.642 249.998C129.046 249.242 141.692 243.157 151.069 232.952C169.566 216.12 188.985 200.468 209.225 186.077L220.588 181.106C225.267 178.975 233.289 174.004 240.642 164.771C248.663 153.407 250 141.333 250 137.072C249.111 123.632 244.966 110.665 237.968 99.4297C219.705 134.005 193.532 163.129 161.869 184.108C130.206 205.088 94.0754 217.246 56.8181 219.458Z" fill="#0293D6"/>
<path d="M82.2192 17.7523C87.2092 12.1521 93.22 7.68977 99.8853 4.63721C106.551 1.58465 113.731 0.005712 120.989 -0.00342683C125.588 -0.330578 130.202 0.317238 134.563 1.90233C138.923 3.48742 142.944 5.97812 146.39 9.22953C165.564 23.6622 188.403 31.5858 211.898 31.9568C217.914 32.667 229.947 34.7977 237.968 45.4511C243.984 53.9738 244.652 63.2068 244.652 67.4682C244.114 78.4426 241.855 89.2445 237.968 99.4284L82.2192 17.7523Z" fill="#EBE638"/>
<path d="M56.8182 219.457C50.8021 218.746 42.7808 216.616 33.4225 212.354C24.0642 208.093 12.7005 203.121 5.34759 189.627C0.668449 181.104 0 172.582 0 166.9C0.163197 151.832 3.59433 137.006 10.0267 123.576C16.4264 106.976 20.6981 89.5379 22.7273 71.7294L26.0695 57.5249C28.0749 50.4226 29.4118 43.3203 34.0909 36.218L41.4439 27.6953C53.5885 19.5826 67.9606 16.0779 82.2193 17.7521C63.1266 46.7713 50.8567 80.2291 46.4373 115.323C42.0178 150.417 45.5775 186.125 56.8182 219.457Z" fill="#BAD147"/>
<path d="M82.2192 17.7578C81.5507 17.7578 118.315 19.8885 141.043 28.4112L159.759 36.9339C152.406 36.2237 105.615 34.093 70.1871 71.7351C25.401 120.031 40.1069 186.082 40.7753 189.633C30.3966 175.759 25.1646 158.324 26.0695 140.627C26.9494 117.14 32.3919 94.1004 42.0548 72.9555C51.7177 51.8107 65.3923 33.0178 82.2192 17.7578Z" fill="#78B650"/>
<path d="M171.791 193.18C184.438 168.755 190.04 140.916 187.9 113.131C185.761 85.3471 175.974 58.8459 159.759 36.9297C179.121 40.3692 196.931 50.3285 210.561 65.3388C218.583 72.4411 228.61 83.0945 237.968 99.4297C224.751 136.732 201.794 169.254 171.791 193.18Z" fill="#2F8260"/>
<path d="M193.182 68.1847C182.487 49.0086 167.112 40.4858 160.428 36.9347C155.08 35.5143 104.946 26.9915 66.8448 66.054C36.0962 97.304 34.0908 137.787 34.0908 145.599C34.2323 172.366 42.6921 198.332 58.155 219.463C78.026 223.528 98.4444 223.528 118.315 219.463C128.342 217.332 151.738 213.071 171.791 194.605C174.465 191.764 203.877 162.645 205.882 116.48C205.882 108.668 205.882 88.7813 193.182 68.1847ZM169.118 171.168C162.91 178.342 155.367 184.067 146.967 187.98C138.567 191.892 129.493 193.906 120.321 193.895C116.31 193.895 89.5721 193.185 70.8555 169.747C68.1817 166.196 54.8127 149.151 55.4812 123.582C56.8181 89.4915 82.2192 69.6052 87.5668 65.3438C92.2459 61.7927 103.61 53.9802 120.321 53.2699C124.331 52.5597 138.369 51.8495 152.406 60.3722C183.155 78.1279 184.492 120.742 184.492 123.582C184.492 131.395 184.492 152.702 169.118 171.168Z" fill="#085229"/>
</g>
<defs>
<clipPath id="clip0_48_12468">
<rect width="250" height="250" fill="white"/>
</clipPath>
</defs>
</svg>
